!!!!SEGMENT: pl-gd--ee-2628--007-007_stabile-annibale--sacrarum-modulationum-convertere-domine.krn
!!!cenid: 15xx:1096
!!!COM: Stabile, Annibale
!!!COM-rismid: pe30009662
!!!CDT: ~1535-1595/04
!!!CNT: Italian
!!!GTL: Sacrarum modulationum
!!!OTL: Convertere Domine
!!!OMV: 007
!!!PDT: 1585
!!!AGN:
!!!SMS-siglum: PL-GD
!!!SMS-shelfmark: Ee 2628
!!!SMS-shelfwork: 007-007 G
!!!SMS-variant:
!!!SMS-altvar:
!!!NIFC-rismid: 990060529
!!!URL-scan: https://repozytorium.nifc.pl/islandora/object/pl-gd%3A66139/datastream/PDF/view
!!!ONB-nifc: UWAGA: Cantus: s. 102-113, Tenore: s. 258-269, Basso: s. 414-425, Quinto: s. 736-747, Sextus: s. 624-632. Dla głosu Alto proszę skorzystać z https://pbc.gda.pl/dlibra/publication/87583/edition/79412/content, s. 25-48. Uwaga: utwory podzielone wg spisu treści dostępnych na końcu ksiąg – proszę sprawdzać sąsiednie tytuły i zwracać uwagę na liczbę głosów. Głosy Quinto i Sextus proszę umieszczać wg ambitusu (może się różnić w zależności od utworu).
!!!AIN: 1 alto 1 bass 1 soprn 1 tenor 1 vox
!!!key: g
**kern	**text	**kern	**text	**kern	**kern	**text	**kern	**text	**kern	**text
*part6	*part6	*part5	*part5	*part4	*part3	*part3	*part2	*part2	*part1	*part1
*staff6	*staff6	*staff5	*staff5	*staff4	*staff3	*staff3	*staff2	*staff2	*staff1	*staff1
*I"BASSVS	*	*I"TENOR	*	*I"SEXTVS	*I"QVINTVS	*	*I"ALTVS	*	*I"CANTVS	*
*I'B	*	*I'T	*	*I'V 6	*I'V 5	*	*I'A	*	*I'S	*
*ICvox	*	*ICvox	*	*	*ICvox	*	*ICvox	*	*ICvox	*
*Ibass	*	*Itenor	*	*	*Ivox	*	*Ialto	*	*Isoprn	*
*clefF3	*	*clefC3	*	*clefC3	*clefC3	*	*clefC2	*	*clefG2	*
*k[b-]	*	*k[b-]	*	*k[b-]	*k[b-]	*	*k[b-]	*	*k[b-]	*
*g:	*	*g:	*	*g:	*g:	*	*g:	*	*g:	*
*M2/1	*	*M2/1	*	*M2/1	*M2/1	*	*M2/1	*	*M2/1	*
*met(C)	*	*met(C|)	*	*met(C)	*met(C|)	*	*met(C|)	*	*met(C)	*
=1-	=1-	=1-	=1-	=1-	=1-	=1-	=1-	=1-	=1-	=1-
!LO:TX:a:i:t=Secunda pars.	!	!LO:TX:a:i:t=Secunda pars.	!	!	!LO:TX:a:i:t=Secunda pars.	!	!LO:TX:a:i:t=Secunda pars.	!	!LO:TX:a:i:t=Secunda pars.	!
1r	.	00r	.	0ryy	1d	COn-	00r	.	00r	.
1G	COn-	.	.	.	2.B-/	-uer-	.	.	.	.
.	.	.	.	.	4B-/	-te-	.	.	.	.
=2-	=2-	=2-	=2-	=2-	=2-	=2-	=2-	=2-	=2-	=2-
2.F/	-uer-	.	.	0ryy	2A/	-re	.	.	.	.
.	.	.	.	.	2.f\	do-	.	.	.	.
4F/	-te-	.	.	.	.	.	.	.	.	.
2D/	-re	.	.	.	.	.	.	.	.	.
.	.	.	.	.	4e\	.	.	.	.	.
2.B-\	do-	.	.	.	4d\	.	.	.	.	.
.	.	.	.	.	4c/	.	.	.	.	.
=3-	=3-	=3-	=3-	=3-	=3-	=3-	=3-	=3-	=3-	=3-
.	.	0r	.	0ryy	1.d	.	1r	.	1dd	COn-
4A\	.	.	.	.	.	.	.	.	.	.
4G\	.	.	.	.	.	.	.	.	.	.
4F/	.	.	.	.	.	.	.	.	.	.
2G\	.	.	.	.	.	.	1g	Con-	2.b-/	-uer-
2G\	-mi-	.	.	.	2G/	-mi-	.	.	.	.
.	.	.	.	.	.	.	.	.	4b-/	-te-
=4-	=4-	=4-	=4-	=4-	=4-	=4-	=4-	=4-	=4-	=4-
1D	-ne	1d	COn-	0ryy	1A	-ne	2.f\	-uer-	2a/	-re
.	.	.	.	.	.	.	.	.	2.ff\	do-
.	.	.	.	.	.	.	4f\	-te-	.	.
1r	.	2.B-/	-uer-	.	1r	.	2d/	-re	.	.
.	.	.	.	.	.	.	.	.	4ee\	.
.	.	.	.	.	.	.	2.b-\	do-	2.dd\	.
.	.	4B-/	-te-	.	.	.	.	.	.	.
=5-	=5-	=5-	=5-	=5-	=5-	=5-	=5-	=5-	=5-	=5-
0r	.	2G/	-re	0ryy	0r	.	.	.	.	.
.	.	.	.	.	.	.	4a\	.	4cc\	.
.	.	2.e-X\	do-	.	.	.	4g\	.	4b-/	.
.	.	.	.	.	.	.	4f\	.	4a/	.
.	.	.	.	.	.	.	1.g	.	2b-/	.
.	.	4d\	.	.	.	.	.	.	.	.
.	.	4c/	.	.	.	.	.	.	4cc\	.
.	.	4B-/	.	.	.	.	.	.	4dd\	.
=6-	=6-	=6-	=6-	=6-	=6-	=6-	=6-	=6-	=6-	=6-
1r	.	2c/	.	0ryy	2r	.	.	.	2ee-X\	.
*	*	*	*	*	*	*ij	*	*	*	*
.	.	2c/	-mi-	.	2g\	Con-	2cc\	-mi-	2ee-\	-mi-
2r	.	1d	-ne	.	2.f\	-uer-	1a	-ne	2dd\	-ne
*	*ij	*	*	*	*	*	*	*	*	*ij
2d\	COn-	.	.	.	.	.	.	.	2dd\	COn-
.	.	.	.	.	4f\	-te-	.	.	.	.
=7-	=7-	=7-	=7-	=7-	=7-	=7-	=7-	=7-	=7-	=7-
2.B-\	-uer-	00r	.	0ryy	2d\	-re	2r	.	2.dd\	-uer-
.	.	.	.	.	2.f\	do-	2d/	Con-	.	.
4B-\	-te-	.	.	.	.	.	.	.	4dd\	-te-
*	*	*	*	*	*	*	*	*	*custos:cc	*
!	!	!	!	!	!	!	!	!	!LO:LB:g=original	!
2A\	-re	.	.	.	.	.	4a\	-uer-	2cc\	-re
.	.	.	.	.	4e\	.	4g\	.	.	.
*custos:B-	*	*	*	*	*	*	*	*	*	*
!LO:LB:g=original	!	!	!	!	!	!	!	!	!	!
2.B-\	do-	.	.	.	4d\	.	4f\	.	2.dd\	do-
.	.	.	.	.	4c/	.	4e/	.	.	.
=8-	=8-	=8-	=8-	=8-	=8-	=8-	=8-	=8-	=8-	=8-
*	*	*	*	*	*lig	*	*	*	*	*
.	.	.	.	0ryy	1B-	.	2d/	.	.	.
4A\	.	.	.	.	.	.	.	.	4cc\	.
4G\	.	.	.	.	.	.	2d/	-te-	4b-/	.
4F\	.	.	.	.	.	.	.	.	4a/	.
*	*	*	*	*	*col	*	*	*	*	*
2E-X/	.	.	.	.	2.e-yX\	.	2G/	-re	2b-/	.
2C/	-mi-	.	.	.	.	.	1g\	do-	2cc\	-mi-
*	*	*	*	*	*Xlig	*	*	*	*	*
.	.	.	.	.	4e-\	-mi-	.	.	.	.
*	*	*	*	*	*Xcol	*	*	*	*	*
=9-	=9-	=9-	=9-	=9-	=9-	=9-	=9-	=9-	=9-	=9-
*	*	*	*	*	*lig	*	*	*	*	*
1D	-ne	2r	.	0ryy	1d	-ne	.	.	2a/	-ne
*	*Xij	*	*	*	*	*Xij	*	*	*	*Xij
.	.	1d	et	.	.	.	2f#X\	-mi-	2a/	et
*	*	*	*	*	*	*	*custos:g	*	*	*
!	!	!	!	!	!	!	!LO:LB:g=original	!	!	!
1r	.	.	.	.	1G	.	1g	-ne	2.b-/	e-
.	.	2.e-X\	e-	.	.	.	.	.	.	.
.	.	.	.	.	.	.	.	.	4b-/	-ri-
*	*	*	*	*	*custos:d	*	*	*	*	*
!	!	!	!	!	!LO:LB:g=original	!	!	!	!	!
*	*	*	*	*	*Xlig	*	*	*	*	*
=10-	=10-	=10-	=10-	=10-	=10-	=10-	=10-	=10-	=10-	=10-
0r	.	.	.	0ryy	0r	.	2r	.	2g/	-pe
.	.	4e-YX\	-ri-	.	.	.	.	.	.	.
.	.	2d\	-pe	.	.	.	2a\	et	2.dd\	a-
.	.	2.g\	a-	.	.	.	2.b-\	e-	.	.
.	.	.	.	.	.	.	.	.	4dd\	-ni-
.	.	.	.	.	.	.	.	.	2b-/	-mam
.	.	4g\	-ni-	.	.	.	4b-\	-ri-	.	.
*	*	*custos:e	*	*	*	*	*	*	*	*
!	!	!LO:LB:g=original	!	!	!	!	!	!	!	!
=11-	=11-	=11-	=11-	=11-	=11-	=11-	=11-	=11-	=11-	=11-
2r	.	2eny\	-mã(m)	0ryy	1r	.	2g\	-pe	1cc	me-
2A\	et	1f	me-	.	.	.	2.a\	a-	.	.
2.B-\	e-	.	.	.	2r	.	.	.	1dd	-am
.	.	.	.	.	.	.	4a\	-ni-	.	.
.	.	4e\	.	.	2d\	et	2g\	-mam	.	.
4B-\	-ri-	4d\	.	.	.	.	.	.	.	.
=12-	=12-	=12-	=12-	=12-	=12-	=12-	=12-	=12-	=12-	=12-
*	*	*	*	*	*	*	*lig	*	*	*ij
2A\	-pe	2c/	.	0ryy	2.f\	e-	1a	me-	2r	.
2.d\	a-	2d\	.	.	.	.	.	.	2a/	et
.	.	.	.	.	4f\	-ri-	.	.	.	.
*	*	*	*	*	*	*	*col	*	*	*
.	.	1G	-am	.	2d\	-pe	2.g\	.	2.b-/	e-
4d\	-ni-	.	.	.	.	.	.	.	.	.
2B-\	-mam	.	.	.	2.g\	a-	.	.	.	.
*	*	*	*	*	*	*	*Xlig	*	*	*
.	.	.	.	.	.	.	4fny\	.	4b-/	-ri-
*	*	*	*	*	*	*	*Xcol	*	*custos:g	*
!	!	!	!	!	!	!	!	!	!LO:LB:g=original	!
=13-	=13-	=13-	=13-	=13-	=13-	=13-	=13-	=13-	=13-	=13-
2.c\	me-	0r	.	0ryy	.	.	2e/	.	2g/	-pe
.	.	.	.	.	4g\	-ni-	.	.	.	.
.	.	.	.	.	2.eny\	-mam	2g\	.	2.cc\	a-
4B-\	.	.	.	.	.	.	.	.	.	.
1A	.	.	.	.	.	.	1a	.	.	.
.	.	.	.	.	8d\	.	.	.	4cc\	-ni-
.	.	.	.	.	8e\	.	.	.	.	.
.	.	.	.	.	2f\	.	.	.	2a/	-mam
=14-	=14-	=14-	=14-	=14-	=14-	=14-	=14-	=14-	=14-	=14-
1G	-am	1r	.	0ryy	1.g	me-	1d	-am	1b-	me-
*custos:D	*	*	*	*	*	*	*	*	*	*
!LO:LB:g=original	!	!	!	!	!	!	!	!	!	!
2r	.	1d	Sal-	.	.	.	1r	.	0a	-am
2.D/	ſal-	.	.	.	4f\	.	.	.	.	.
.	.	.	.	.	4e\	.	.	.	.	.
*	*	*	*	*	*	*	*	*	*	*Xij
=15-	=15-	=15-	=15-	=15-	=15-	=15-	=15-	=15-	=15-	=15-
.	.	1f	-uũ(m)	0ryy	1d	.	0r	.	.	.
4Eny/	.	.	.	.	.	.	.	.	.	.
4F/	.	.	.	.	.	.	.	.	.	.
4G\	.	.	.	.	.	.	.	.	.	.
4A\	.	1e	me	.	1c	-am	.	.	1r	.
4B-\	.	.	.	.	.	.	.	.	.	.
4c\	.	.	.	.	.	.	.	.	.	.
4A\	.	.	.	.	.	.	.	.	.	.
=16-	=16-	=16-	=16-	=16-	=16-	=16-	=16-	=16-	=16-	=16-
2B-\	.	0d	fac	0ryy	1r	.	1r	.	0r	.
2.G\	-uum	.	.	.	.	.	.	.	.	.
.	.	.	.	.	2r	.	1g	Sal-	.	.
4A\	.	.	.	.	.	.	.	.	.	.
4B-\	.	.	.	.	2.G/	Sal-	.	.	.	.
4c\	.	.	.	.	.	.	.	.	.	.
=17-	=17-	=17-	=17-	=17-	=17-	=17-	=17-	=17-	=17-	=17-
2d\	.	2r	.	0ryy	.	.	1b-	-uũ(m)	1dd	Sal-
.	.	.	.	.	4A/	.	.	.	.	.
*	*	*	*ij	*	*	*	*	*	*	*
2G\	me	1d	Sal-	.	4B-/	.	.	.	.	.
.	.	.	.	.	4c/	.	.	.	.	.
1D	fac	.	.	.	4d\	.	1a	me	1ff	-uum
.	.	.	.	.	4e\	.	.	.	.	.
.	.	2A/	-uũ(m)	.	4f\	.	.	.	.	.
.	.	.	.	.	4d\	.	.	.	.	.
=18-	=18-	=18-	=18-	=18-	=18-	=18-	=18-	=18-	=18-	=18-
0r	.	1c	me	0ryy	4e\	.	2g\	fac	1eeny	me
.	.	.	.	.	4f\	.	.	.	.	.
*	*ij	*	*	*	*	*	*	*ij	*	*
.	.	.	.	.	1g	.	2g\	Sal-	.	.
.	.	0d	fac	.	.	.	2b-\	-uũ(m)	2.dd\	fac
.	.	.	.	.	2f#X\	-uũ(m)	2a\	me	.	.
.	.	.	.	.	.	.	.	.	4cc\	.
=19-	=19-	=19-	=19-	=19-	=19-	=19-	=19-	=19-	=19-	=19-
1G	ſal-	.	.	0ryy	1g	me	2g\	fac	4b-/	.
.	.	.	.	.	.	.	.	.	4a/	.
*	*	*	*Xij	*	*	*	*	*Xij	*	*
.	.	.	.	.	.	.	2.d/	Sal-	2.b-/	.
*	*	*	*	*	*custos:f	*	*	*	*	*
!	!	!	!	!	!LO:LB:g=original	!	!	!	!	!
1B-	-uum	0r	.	.	2fny\	fac	.	.	.	.
.	.	.	.	.	.	.	4e/	.	4cc\	.
*	*	*	*	*	*	*ij	*	*	*	*
.	.	.	.	.	2d\	Sal-	4f\	.	4dd\	.
.	.	.	.	.	.	.	4g\	.	4b-/	.
*	*	*	*	*	*	*	*custos:a	*	*	*
!	!	!	!	!	!	!	!LO:LB:g=original	!	!	!
=20-	=20-	=20-	=20-	=20-	=20-	=20-	=20-	=20-	=20-	=20-
1A	me	.	.	0ryy	2f\	-uum	4a\	.	1cc	.
.	.	.	.	.	.	.	4b-\	.	.	.
.	.	.	.	.	2e\	me	4cc\	.	.	.
.	.	.	.	.	.	.	4a\	.	.	.
1G	fac	1d	Sal-	.	1g	fac	1b-	.	2r	.
.	.	.	.	.	.	.	.	.	2.g/	Sal-
*	*Xij	*	*	*	*	*	*	*	*	*
=21-	=21-	=21-	=21-	=21-	=21-	=21-	=21-	=21-	=21-	=21-
1r	.	1e-X	-uum	0ryy	0r	.	2b-\	-uum	.	.
.	.	.	.	.	.	.	.	.	4a/	.
.	.	.	.	.	.	.	2g\	me	4b-/	.
.	.	.	.	.	.	.	.	.	4cc\	.
1D	Sal-	1d	me	.	.	.	2a\	fac	4dd\	.
.	.	.	.	.	.	.	.	.	4ee\	.
*	*	*	*	*	*	*Xij	*	*ij	*	*
.	.	.	.	.	.	.	2.A/	Sal-	1ff\	.
*	*	*custos:c	*	*	*	*	*	*	*	*
!	!	!LO:LB:g=original	!	!	!	!	!	!	!	!
=22-	=22-	=22-	=22-	=22-	=22-	=22-	=22-	=22-	=22-	=22-
*	*	*lig	*	*	*	*	*	*	*	*
1F	-uũ(m)	0c	fac	0ryy	1r	.	.	.	.	.
.	.	.	.	.	.	.	4B-/	.	.	.
.	.	.	.	.	.	.	4c/	.	2f/	-uum
.	.	.	.	.	.	.	4d/	.	.	.
1E	me	.	.	.	1G	Sal-	4e/	.	1g	me
.	.	.	.	.	.	.	4f\	.	.	.
.	.	.	.	.	.	.	4g\	.	.	.
.	.	.	.	.	.	.	4e/	.	.	.
=23-	=23-	=23-	=23-	=23-	=23-	=23-	=23-	=23-	=23-	=23-
0D	fac	0d	.	0ryy	1B-	-uũ(m)	2f\	.	00dd	fac
.	.	.	.	.	.	.	1g	-uum	.	.
.	.	.	.	.	1A	me	.	.	.	.
.	.	.	.	.	.	.	2f#X\	me	.	.
*	*	*Xlig	*	*	*	*	*	*	*	*
=24-	=24-	=24-	=24-	=24-	=24-	=24-	=24-	=24-	=24-	=24-
2r	.	2r	.	0ryy	0G	fac	0g	fac	.	.
2B-\	prop-	2d\	prop-	.	.	.	.	.	.	.
2B-\	-ter	2d\	-ter	.	.	.	.	.	.	.
2B-\	mi-	2d\	mi-	.	.	.	.	.	.	.
*custos:A	*	*	*	*	*	*	*	*Xij	*	*
!LO:LB:g=original	!	!	!	!	!	!	!	!	!	!
=25-	=25-	=25-	=25-	=25-	=25-	=25-	=25-	=25-	=25-	=25-
2A\	-ſe-	2f\	-ſe-	0ryy	0r	.	2r	.	0r	.
2c\	-ri-	2eny\	-ri-	.	.	.	2a\	prop-	.	.
2.d\	-cor-	2.f\	-cor-	.	.	.	2a\	-ter	.	.
.	.	.	.	.	.	.	2a\	mi-	.	.
4c\	-di-	4e\	-di-	.	.	.	.	.	.	.
*	*	*	*	*	*	*	*	*	*custos:b-	*
!	!	!	!	!	!	!	!	!	!LO:LB:g=original	!
=26-	=26-	=26-	=26-	=26-	=26-	=26-	=26-	=26-	=26-	=26-
2B-\	-am	2d\	-am	0ryy	1r	.	2g\	-ſe-	1r	.
2A\	tu-	2c/	tu-	.	.	.	2a\	-ri-	.	.
0G	-am	1d	-am	.	2r	.	2.b-\	-cor-	2r	.
.	.	.	.	.	2d\	prop-	.	.	2b-/	prop-
.	.	.	.	.	.	.	4a\	-di-	.	.
=27-	=27-	=27-	=27-	=27-	=27-	=27-	=27-	=27-	=27-	=27-
.	.	00r	.	0ryy	2d\	-ter	1g	-am	2b-/	-ter
.	.	.	.	.	2d\	mi-	.	.	2b-/	mi-
1r	.	.	.	.	2f\	-ſe-	2r	.	2a/	-ſe-
.	.	.	.	.	2e\	-ri-	2g\	pro-	2cc\	-ri-
*	*ij	*	*	*	*	*	*custos:a	*	*	*
!	!	!	!	!	!	!	!LO:LB:g=original	!	!	!
=28-	=28-	=28-	=28-	=28-	=28-	=28-	=28-	=28-	=28-	=28-
2r	.	.	.	0ryy	2.f\	-cor-	2a\	-pter	2.dd\	-cor-
2D/	prop-	.	.	.	.	.	2a\	mi-	.	.
.	.	.	.	.	4e\	-di-	.	.	4cc\	-di-
2D/	-ter	.	.	.	1d	-am	1fny	-ſe-	2b-/	-am
2D/	mi-	.	.	.	.	.	.	.	1a/	tu-
=29-	=29-	=29-	=29-	=29-	=29-	=29-	=29-	=29-	=29-	=29-
2F/	-ſe-	2r	.	0ryy	1c	tu-	2f\	-ri-	.	.
2E/	-ri-	2c/	prop-	.	.	.	2.cc\	-cor-	2g/	.
2.F/	-cor-	2c/	-ter	.	0.A	-am	.	.	1a	-am
.	.	.	.	.	.	.	4b-\	.	.	.
.	.	2c/	mi-	.	.	.	4a\	.	.	.
4E/	-di-	.	.	.	.	.	4g\	.	.	.
=30-	=30-	=30-	=30-	=30-	=30-	=30-	=30-	=30-	=30-	=30-
2D/	-am	2d\	-ſe-	0ryy	.	.	2f\	.	2r	.
2C#X/	tu-	2e\	-ri-	.	.	.	1e	-di-	1a	Quo-
1D	-am	2.f\	-cor-	.	.	.	.	.	.	.
.	.	.	.	.	.	.	1d/	-am	2a/	-ni-
.	.	4f\	-di-	.	.	.	.	.	.	.
*	*Xij	*	*	*	*	*	*	*	*	*
=31-	=31-	=31-	=31-	=31-	=31-	=31-	=31-	=31-	=31-	=31-
0r	.	1e	-am	0ryy	1.A	Quo-	.	.	2a/	-am
.	.	.	.	.	.	.	4c#X/	.	2ee\	non
!	!	!	!	!	!	!	!LO:N:acc=#	!	!	!
.	.	.	.	.	.	.	4Bn/	.	.	.
.	.	0a	tu-	.	.	.	1c#X	.	2ee\	eſt
.	.	.	.	.	2A/	-ni-	.	.	2ee\	in
=32-	=32-	=32-	=32-	=32-	=32-	=32-	=32-	=32-	=32-	=32-
1.D	Quo-	.	.	0ryy	2A/	-am	4d/	tu-	1ff	mor-
.	.	.	.	.	.	.	4e/	.	.	.
.	.	.	.	.	2d\	non	4f\	.	.	.
.	.	.	.	.	.	.	4g\	.	.	.
.	.	1f	-am	.	2d\	eſt	1a	.	1dd	-te
2D/	-ni-	.	.	.	2d\	in	.	.	.	.
*	*	*	*	*	*custos:f	*	*	*	*	*
!	!	!	!	!	!LO:LB:g=original	!	!	!	!	!
=33-	=33-	=33-	=33-	=33-	=33-	=33-	=33-	=33-	=33-	=33-
2D/	-am	00r	.	0ryy	1f	mor-	1a	-am	2r	.
2A\	non	.	.	.	.	.	.	.	2.cc\	Quo-
2A\	eſt	.	.	.	2e\	-te	1r	.	.	.
.	.	.	.	.	.	.	.	.	4b-/	.
2A\	in	.	.	.	2c/	qui	.	.	4a/	.
.	.	.	.	.	.	.	.	.	4g/	.
=34-	=34-	=34-	=34-	=34-	=34-	=34-	=34-	=34-	=34-	=34-
1B-	mor-	.	.	0ryy	1d	me-	2r	.	2f/	.
.	.	.	.	.	.	.	1d	Quo-	2f/	-ni-
*	*	*	*	*	*	*	*	*	*custos:g	*
!	!	!	!	!	!	!	!	!	!LO:LB:g=original	!
2G\	-te	.	.	.	2B-/	-mor	.	.	2g/	-am
2F#X/	qui	.	.	.	2A/	ſit	2d/	-ni-	2dd\	non
*custos:G	*	*	*	*	*	*	*	*	*	*
!LO:LB:g=original	!	!	!	!	!	!	!	!	!	!
=35-	=35-	=35-	=35-	=35-	=35-	=35-	=35-	=35-	=35-	=35-
!	!	!	!	!	!LO:N:acc=#	!	!	!	!	!
1G	me-	0r	.	0ryy	1Bn	tu-	2d/	-ã(m)	2dd\	eſt
.	.	.	.	.	.	.	2g\	non	2dd\	in
2Cny/	-mor	.	.	.	2c/	-i	2g\	eſt	1ee-X	mor-
2C/	ſit	.	.	.	2c/	qui	2g\	in	.	.
=36-	=36-	=36-	=36-	=36-	=36-	=36-	=36-	=36-	=36-	=36-
1G	tu-	2r	.	0ryy	2d\	me-	1b-	mor-	1dd	-te
.	.	2d\	non	.	1g	-mor	.	.	.	.
1D	-i	2d\	eſt	.	.	.	1a	-te	2r	.
.	.	2d\	in	.	2f#X\	ſit	.	.	2dd\	qui
*	*	*custos:e-	*	*	*	*	*	*	*	*
!	!	!LO:LB:g=original	!	!	!	!	!	!	!	!
=37-	=37-	=37-	=37-	=37-	=37-	=37-	=37-	=37-	=37-	=37-
1r	.	1e-X	mor-	0ryy	2.g\	tu-	1r	.	1b-	me-
.	.	.	.	.	4fny\	.	.	.	.	.
*	*	*	*	*	*	*	*custos:g	*	*	*
!	!	!	!	!	!	!	!LO:LB:g=original	!	!	!
2r	.	2c/	-te	.	2e-X\	.	1g	non	2cc\	-mor
!	!	!LO:N:acc=#	!	!	!	!	!	!	!	!
2G\	non	2Bn/	qui	.	2d\	-i	.	.	2dd\	ſit
=38-	=38-	=38-	=38-	=38-	=38-	=38-	=38-	=38-	=38-	=38-
*	*	*lig	*	*	*	*	*	*	*	*
2C/	eſt	1c	me-	0ryy	2r	.	2g\	eſt	1ee-X	tu-
2C/	in	.	.	.	1G	qui	2g\	in	.	.
1G	mor-	1d	.	.	.	.	1b-	mor-	0.dd	-i
.	.	.	.	.	1g\	me-	.	.	.	.
*	*	*Xlig	*	*	*	*	*	*	*	*ij
=39-	=39-	=39-	=39-	=39-	=39-	=39-	=39-	=39-	=39-	=39-
1D	-te	2.d\	-mor	0ryy	.	.	1.a	-te	.	.
.	.	.	.	.	2f\	-mor	.	.	.	.
.	.	4eny\	.	.	.	.	.	.	.	.
2r	.	4f\	.	.	2d\	ſit	.	.	.	.
.	.	4e\	.	.	.	.	.	.	.	.
2D/	qui	4d\	.	.	1f\	tu-	2a\	qui	.	.
.	.	4c/	.	.	.	.	.	.	.	.
=40-	=40-	=40-	=40-	=40-	=40-	=40-	=40-	=40-	=40-	=40-
1B-	me-	4d\	.	0ryy	.	.	2.f\	me-	2r	.
.	.	4e\	.	.	.	.	.	.	.	.
.	.	4f\	.	.	2d\	-i	.	.	2dd\	qui
.	.	4d\	.	.	.	.	4g\	-mor	.	.
2A\	-mor	4e\	.	.	1r	.	2a\	ſit	2cc\	me-
.	.	4c/	.	.	.	.	.	.	.	.
2G\	ſit	1d\	.	.	.	.	2.b-\	tu-	2gg\	-mor
=41-	=41-	=41-	=41-	=41-	=41-	=41-	=41-	=41-	=41-	=41-
*lig	*	*	*	*	*	*	*	*	*	*
1A	tu-	.	.	0ryy	0r	.	.	.	2eeny\	ſit
.	.	.	.	.	.	.	4a\	.	.	.
.	.	2c/	ſit	.	.	.	1a	.	1ff	tu-
1B-	.	1d	tu-	.	.	.	.	.	.	.
.	.	.	.	.	.	.	2g\	.	4ee\	.
.	.	.	.	.	.	.	.	.	4dd\	.
*Xlig	*	*	*	*	*	*	*	*	*	*
=42-	=42-	=42-	=42-	=42-	=42-	=42-	=42-	=42-	=42-	=42-
1A	-i	1e	-i	0ryy	2r	.	1a	-i	1cc#X	-i
.	.	.	.	.	2.a\	in	.	.	.	.
2.A\	in	2r	.	.	.	.	1r	.	1r	.
.	.	.	.	.	4g\	in-	.	.	.	.
.	.	2.a\	in	.	2f\	-fer-	.	.	.	.
!LO:N:acc=#	!	!	!	!	!	!	!	!	!	!
4Bn\	in-	.	.	.	.	.	.	.	.	.
*	*	*	*	*	*custos:e	*	*	*	*	*Xij
!	!	!	!	!	!LO:LB:g=original	!	!	!	!	!
=43-	=43-	=43-	=43-	=43-	=43-	=43-	=43-	=43-	=43-	=43-
2c#X\	-fer-	.	.	0ryy	2eny\	-no	2r	.	2.a/	in
.	.	4g\	in-	.	.	.	.	.	.	.
2d\	-no	2f\	-fer-	.	2d\	au-	2.a\	in	.	.
!	!	!	!	!	!	!	!	!	!LO:N:acc=#	!
.	.	.	.	.	.	.	.	.	4bn/	in-
2A\	au-	2e\	-no	.	2e\	-tẽ(m)	.	.	2cc#X\	-fer-
.	.	.	.	.	.	.	4g\	in-	.	.
2D/	-tem	2d\	au-	.	2a\	quis	2f\	-fer-	2dd\	-no
*custos:D	*	*	*	*	*	*	*	*	*custos:dd	*
!LO:LB:g=original	!	!	!	!	!	!	!	!	!LO:LB:g=original	!
=44-	=44-	=44-	=44-	=44-	=44-	=44-	=44-	=44-	=44-	=44-
00r	.	2A/	-tem	0ryy	2a\	con-	2e/	-no	2cc#X\	au-
.	.	2d\	quis	.	2a\	-fi-	2f\	au-	2dd\	-tem
*	*	*custos:d	*	*	*	*	*	*	*	*
!	!	!LO:LB:g=original	!	!	!	!	!	!	!	!
.	.	2d\	con-	.	2.f\	-te-	1a	-tem	2r	.
.	.	2d\	-fi-	.	.	.	.	.	2dd\	quis
.	.	.	.	.	4e\	-bi-	.	.	.	.
=45-	=45-	=45-	=45-	=45-	=45-	=45-	=45-	=45-	=45-	=45-
.	.	2.B-y/	-te-	0ryy	2d\	-tur	1r	.	2dd\	con-
.	.	.	.	.	2f\	ti-	.	.	2dd\	-fi-
.	.	4A/	-bi-	.	.	.	.	.	.	.
.	.	1.G	-tur	.	1g	-bi	2r	.	2.b-y/	-te-
.	.	.	.	.	.	.	2d/	quis	.	.
.	.	.	.	.	.	.	.	.	4a/	-bi-
=46-	=46-	=46-	=46-	=46-	=46-	=46-	=46-	=46-	=46-	=46-
1r	.	.	.	0ryy	2r	.	2d/	con-	2g/	-tur
*	*	*	*	*	*	*ij	*	*	*	*
.	.	1B-	ti-	.	2d\	au-	2d/	-fi-	2f/	ti-
2r	.	.	.	.	2d\	-tẽ(m)	2.f\	-te-	2d/	-bi
*	*	*	*	*	*	*	*	*	*	*ij
2D/	quis	2A/	-bi	.	2d\	quis	.	.	2dd\	quis
.	.	.	.	.	.	.	4g\	-bi-	.	.
=47-	=47-	=47-	=47-	=47-	=47-	=47-	=47-	=47-	=47-	=47-
2D/	con-	1r	.	0ryy	1.f	con-	2a\	-tur	2dd\	con-
2D/	-fi-	.	.	.	.	.	2b-\	ti-	2dd\	-fi-
*	*	*	*	*	*	*	*custos:a	*	*	*
!	!	!	!	!	!	!	!LO:LB:g=original	!	!	!
2.Fny/	-te-	2r	.	.	.	.	1a	-bi	2.ccny\	-te-
.	.	1c\	La-	.	2f\	-fi-	.	.	.	.
4G\	-bi-	.	.	.	.	.	.	.	4b-/	-bi-
=48-	=48-	=48-	=48-	=48-	=48-	=48-	=48-	=48-	=48-	=48-
2A\	-tur	.	.	0ryy	2e\	-te-	0r	.	2a/	-tur
2B-y\	ti-	2d\	-bo-	.	1d	-bi-	.	.	2g/	ti-
1A	-bi	1e	-ra-	.	.	.	.	.	0a	-bi
.	.	.	.	.	2c#X/	-tur	.	.	.	.
*	*	*	*	*	*	*	*	*	*	*Xij
=49-	=49-	=49-	=49-	=49-	=49-	=49-	=49-	=49-	=49-	=49-
2r	.	2f\	-ui	0ryy	2.d\	ti-	1r	.	.	.
1d	La-	2d\	in	.	.	.	.	.	.	.
.	.	.	.	.	8cny/	.	.	.	.	.
.	.	.	.	.	8B-y/	.	.	.	.	.
.	.	2f\	ge-	.	1A	-bi	1a	La-	1r	.
2cny\	-bo-	2e\	-ni-	.	.	.	.	.	.	.
*	*	*	*	*	*	*Xij	*	*	*	*
=50-	=50-	=50-	=50-	=50-	=50-	=50-	=50-	=50-	=50-	=50-
1B-	-ra-	1d	-tu	0ryy	1r	.	2g\	-bo-	2r	.
.	.	.	.	.	.	.	1f	-ra-	1dd	La-
2A\	-ui	1a	me-	.	2r	.	.	.	.	.
2A\	in	.	.	.	1a\	La-	2e/	-ui	2cc\	-bo-
=51-	=51-	=51-	=51-	=51-	=51-	=51-	=51-	=51-	=51-	=51-
2.B-\	ge-	1d	-o	0ryy	.	.	0r	.	1b-	-ra-
.	.	.	.	.	2g\	-bo-	.	.	.	.
4G\	-mi-	.	.	.	.	.	.	.	.	.
1d	-tu	2r	.	.	1f	-ra-	.	.	1a	-ui
.	.	1a\	La-	.	.	.	.	.	.	.
*	*	*	*	*	*custos:e	*	*	*	*	*
!	!	!	!	!	!LO:LB:g=original	!	!	!	!	!
=52-	=52-	=52-	=52-	=52-	=52-	=52-	=52-	=52-	=52-	=52-
0A	me-	.	.	0ryy	2e\	-ui	1.a	La-	1r	.
.	.	2g\	-bo-	.	2e\	in	.	.	.	.
.	.	2f\	-ra-	.	1.a	ge-	.	.	1.cc	La-
.	.	1e\	-ui	.	.	.	2g\	-bo-	.	.
=53-	=53-	=53-	=53-	=53-	=53-	=53-	=53-	=53-	=53-	=53-
0A	-o	.	.	0ryy	.	.	1f	-ra-	.	.
.	.	2.d\	in	.	2a\	-mi-	.	.	2dd\	-bo-
.	.	.	.	.	1a	-tu	2e/	-ui	1ee	-ra-
.	.	8c#X/	.	.	.	.	.	.	.	.
!	!	!LO:N:acc=#	!	!	!	!	!	!	!	!
.	.	8Bn/	.	.	.	.	.	.	.	.
.	.	2c#X/	.	.	.	.	2e/	in	.	.
*	*	*custos:d	*	*	*	*	*	*	*	*
!	!	!LO:LB:g=original	!	!	!	!	!	!	!	!
=54-	=54-	=54-	=54-	=54-	=54-	=54-	=54-	=54-	=54-	=54-
00r	.	1.d	ge-	0ryy	2r	.	2.a\	ge-	2ff\	-ui
.	.	.	.	.	2.f\	me-	.	.	2dd\	in
.	.	.	.	.	.	.	4a\	-mi-	.	.
*	*	*	*	*	*	*	*	*	*custos:dd	*
!	!	!	!	!	!	!	!	!	!LO:LB:g=original	!
.	.	.	.	.	.	.	2a\	-tu	2ff\	ge-
.	.	.	.	.	4g\	.	.	.	.	.
.	.	2A/	-mi-	.	2a\	.	2.cc\	me-	2ee\	-mi-
=55-	=55-	=55-	=55-	=55-	=55-	=55-	=55-	=55-	=55-	=55-
.	.	1B-y	-tu	0ryy	1f	-o	.	.	1dd	-tu
.	.	.	.	.	.	.	4b-\	.	.	.
.	.	.	.	.	.	.	1b-	.	.	.
.	.	1F	me-	.	2r	.	.	.	1cc	me-
.	.	.	.	.	2f\	La-	2a\	.	.	.
=56-	=56-	=56-	=56-	=56-	=56-	=56-	=56-	=56-	=56-	=56-
2r	.	2B-/	-o	0ryy	1f	-ua-	1b-	-o	0dd	-o
2B-\	La-	2d\	La-	.	.	.	.	.	.	.
1B-	-ua-	1f	-ua-	.	2d\	-bo	2r	.	.	.
.	.	.	.	.	2d\	per	2b-\	La-	.	.
=57-	=57-	=57-	=57-	=57-	=57-	=57-	=57-	=57-	=57-	=57-
2G\	-bo	2g\	-bo	0ryy	2.B-/	ſin-	2b-\	-ua-	2r	.
2G\	per	2d\	per	.	.	.	2g\	-bo	2gg\	La-
.	.	.	.	.	4B-/	-gu-	.	.	.	.
2.E-X/	ſin-	2.e-X\	ſin-	.	2B-/	-las	2g\	per	1gg	-ua-
.	.	.	.	.	1G/	noc-	2.e-X/	ſin-	.	.
4E-/	-gu-	4B-/	-gu-	.	.	.	.	.	.	.
*custos:E-	*	*	*	*	*	*	*	*	*	*
!LO:LB:g=original	!	!	!	!	!	!	!	!	!	!
=58-	=58-	=58-	=58-	=58-	=58-	=58-	=58-	=58-	=58-	=58-
2E-X/	-las	2B-/	-las	0ryy	.	.	.	.	2ee-X\	-bo
.	.	.	.	.	.	.	4e-yX/	-gu-	.	.
1C	noc-	2cny/	noc-	.	2G/	-tes	2e-/	-las	2ee-\	per
.	.	2c/	-tes	.	2e-X\	lec-	2g\	noc-	2.cc\	ſin-
2C/	-tes	1G/	lec-	.	2e-\	-tum	2g\	-tes	.	.
.	.	.	.	.	.	.	.	.	4cc\	-gu-
*	*	*	*	*	*	*	*custos:g	*	*	*
!	!	!	!	!	!	!	!LO:LB:g=original	!	!	!
=59-	=59-	=59-	=59-	=59-	=59-	=59-	=59-	=59-	=59-	=59-
2G\	lec-	.	.	0ryy	1d	me-	2b-\	lec-	2dd\	-las
2F#X/	-tum	2A/	-tũ(m)	.	.	.	2a\	-tũ(m)	1dd	noc-
1G	me-	2.B-/	me-	.	1d	-um	1g	me-	.	.
.	.	.	.	.	.	.	.	.	2dd\	-tes
.	.	8A/	.	.	.	.	.	.	.	.
.	.	8G/	.	.	.	.	.	.	.	.
=60-	=60-	=60-	=60-	=60-	=60-	=60-	=60-	=60-	=60-	=60-
1D	-um	2d\	.	0ryy	2r	.	1a	-um	1.ff	lec-
.	.	2A/	-um	.	1d	lec-	.	.	.	.
1r	.	2d\	lec-	.	.	.	1.a	lec-	.	.
.	.	2eny\	-tum	.	2c#X/	-tum	.	.	2eeny\	-tum
*	*	*	*	*	*custos:d	*	*	*	*	*
!	!	!	!	!	!LO:LB:g=original	!	!	!	!	!
=61-	=61-	=61-	=61-	=61-	=61-	=61-	=61-	=61-	=61-	=61-
0r	.	2f#X\	me-	0ryy	0d	me-	.	.	0dd	me-
.	.	2.g\	.	.	.	.	2b-\	-tum	.	.
.	.	.	.	.	.	.	1a	me-	.	.
.	.	4f#X\	.	.	.	.	.	.	.	.
.	.	2f#\	.	.	.	.	.	.	.	.
*	*	*custos:g	*	*	*	*	*	*	*	*
!	!	!LO:LB:g=original	!	!	!	!	!	!	!	!
=62-	=62-	=62-	=62-	=62-	=62-	=62-	=62-	=62-	=62-	=62-
2r	.	2g\	-um	0ryy	1G	-um	1g	-um	1dd	-um
1G	La-	1d	La-	.	.	.	.	.	.	.
.	.	.	.	.	2r	.	1.b-	La-	1.dd	La-
2G\	-chry-	2d\	-chry-	.	1G/	La-	.	.	.	.
=63-	=63-	=63-	=63-	=63-	=63-	=63-	=63-	=63-	=63-	=63-
0D	-mis	1d	-mis	0ryy	.	.	.	.	.	.
.	.	.	.	.	2F/	-chry-	2a\	-chry-	2dd\	-chry-
.	.	1r	.	.	1F	-mis	2a\	-mis	1dd	-mis
.	.	.	.	.	.	.	1b-\	me-	.	.
=64-	=64-	=64-	=64-	=64-	=64-	=64-	=64-	=64-	=64-	=64-
*	*	*	*	*	*	*	*	*	*lig	*
0E-X	me-	0r	.	0ryy	1.G	me-	.	.	1b-	me-
.	.	.	.	.	.	.	2a\	.	.	.
.	.	.	.	.	.	.	0g	.	1cc	.
.	.	.	.	.	2A/	.	.	.	.	.
*	*	*	*	*	*	*	*	*	*Xlig	*
=65-	=65-	=65-	=65-	=65-	=65-	=65-	=65-	=65-	=65-	=65-
0D	-is	1.d	La-	0ryy	1B-	.	.	.	0dd	-is
.	.	.	.	.	1A	-is	1f#X	-is	.	.
.	.	2d\	-chry-	.	.	.	.	.	.	.
=66-	=66-	=66-	=66-	=66-	=66-	=66-	=66-	=66-	=66-	=66-
*	*	*	*	*	*	*ij	*	*	*	*ij
00r	.	1G	-mis	0ryy	1.d	La-	2r	.	1b-	La-
.	.	.	.	.	.	.	2.g\	ſtra-	.	.
.	.	1B-	me-	.	.	.	.	.	2b-/	-chry-
.	.	.	.	.	.	.	4g\	-tũ(m)	.	.
.	.	.	.	.	2d\	-chry-	2d/	me-	2f/	-mis
*	*	*	*	*	*	*	*	*	*custos:a	*
!	!	!	!	!	!	!	!	!	!LO:LB:g=original	!
=67-	=67-	=67-	=67-	=67-	=67-	=67-	=67-	=67-	=67-	=67-
.	.	0A	-is	0ryy	2cny/	-mis	2fny\	-um	0a	me-
.	.	.	.	.	2.d\	me-	2f\	ri-	.	.
.	.	.	.	.	.	.	1eny	-ga-	.	.
.	.	.	.	.	4c#X/	.	.	.	.	.
.	.	.	.	.	2c#/	.	.	.	.	.
=68-	=68-	=68-	=68-	=68-	=68-	=68-	=68-	=68-	=68-	=68-
1r	.	2r	.	0ryy	0.d	-is	0f#X	-bo	1a	-is
.	.	2.a\	ſtra-	.	.	.	.	.	.	.
2r	.	.	.	.	.	.	.	.	1r	.
.	.	4a\	-rum	.	.	.	.	.	.	.
2.D/	ſtra-	2d\	me-	.	.	.	.	.	.	.
*	*	*	*	*	*	*Xij	*	*ij	*	*Xij
=69-	=69-	=69-	=69-	=69-	=69-	=69-	=69-	=69-	=69-	=69-
.	.	2f#X\	-um	0ryy	.	.	1r	.	2r	.
4D/	-tum	.	.	.	.	.	.	.	.	.
2G\	me-	2g\	ri-	.	.	.	.	.	2.dd\	ſtra-
2F#X/	-um	1a	-ga-	.	1r	.	2r	.	.	.
.	.	.	.	.	.	.	.	.	4dd\	-tũ(m)
2F#/	ri-	.	.	.	.	.	2.d/	ſtra-	2a/	me-
=70-	=70-	=70-	=70-	=70-	=70-	=70-	=70-	=70-	=70-	=70-
1G	-ga-	1g	-bo	0ryy	2r	.	.	.	2b-/	-ũ(m)
.	.	.	.	.	.	.	4d/	-tum	.	.
.	.	.	.	.	2.d\	ſtra-	2g\	me-	2b-/	ri-
*	*	*	*ij	*	*	*	*custos:f#	*	*	*
!	!	!	!	!	!	!	!LO:LB:g=original	!	!	!
1D	-bo	2r	.	.	.	.	2f#X\	-um	1a	-ga-
.	.	.	.	.	4d\	-rum	.	.	.	.
.	.	2.d\	ſtra-	.	2A/	me-	2f#\	ri-	.	.
*custos:G	*ij	*	*	*	*	*	*	*	*	*
!LO:LB:g=original	!	!	!	!	!	!	!	!	!	!
=71-	=71-	=71-	=71-	=71-	=71-	=71-	=71-	=71-	=71-	=71-
2.G\	ſtra-	.	.	0ryy	2B-/	-um	2g\	-ga-	1g	-bo
.	.	4d\	-tum	.	.	.	.	.	.	.
.	.	2g\	me-	.	2B-/	ri-	2d/	-bo	.	.
4G\	-tum	.	.	.	.	.	.	.	.	.
*	*	*	*	*	*	*	*	*Xij	*	*ij
1D	me-	2f#X\	-um	.	1A	-ga-	1r	.	2.dd\	ſtra-
.	.	2f#\	ri-	.	.	.	.	.	.	.
.	.	.	.	.	.	.	.	.	4dd\	-tũ(m)
*	*	*custos:g	*	*	*	*	*	*	*	*
!	!	!LO:LB:g=original	!	!	!	!	!	!	!	!
=72-	=72-	=72-	=72-	=72-	=72-	=72-	=72-	=72-	=72-	=72-
2E-X/	-um	2.g\	-ga-	0ryy	1G	-bo	2r	.	1b-	me-
2E-/	ri-	.	.	.	.	.	2.g\	ſtra-	.	.
.	.	4fny\	.	.	.	.	.	.	.	.
*lig	*	*	*	*	*custos:g	*ij	*	*	*	*
!	!	!	!	!	!LO:LB:g=original	!	!	!	!	!
1C	-ga-	1e-X	.	.	2r	.	.	.	1cc	-ũ(m)
.	.	.	.	.	.	.	4g\	-tũ(m)	.	.
.	.	.	.	.	2.g\	ſtra-	2cc\	me-	.	.
=73-	=73-	=73-	=73-	=73-	=73-	=73-	=73-	=73-	=73-	=73-
*col	*	*	*	*	*	*	*	*	*	*
2.G\	.	1d	-bo	0ryy	.	.	2b-\	-ũ(m)	1.dd	ri-
.	.	.	.	.	4g\	-tum	.	.	.	.
.	.	.	.	.	2d\	me-	1b-	ri-	.	.
*Xlig	*	*	*Xij	*	*	*	*	*	*	*
8Fny\	.	.	.	.	.	.	.	.	.	.
8Eny/	.	.	.	.	.	.	.	.	.	.
*Xcol	*	*	*	*	*	*	*	*	*	*
4D/	.	0r	.	.	2f\	-um	.	.	.	.
4E/	.	.	.	.	.	.	.	.	.	.
2F/	.	.	.	.	2f\	ri-	2.a\	-ga-	2.cc\	-ga-
=74-	=74-	=74-	=74-	=74-	=74-	=74-	=74-	=74-	=74-	=74-
1C	-bo	.	.	0ryy	1e-X	-ga-	.	.	.	.
.	.	.	.	.	.	.	4g\	.	8b-/	.
.	.	.	.	.	.	.	.	.	8a/	.
.	.	.	.	.	.	.	1g	.	2g/	.
*	*Xij	*	*	*	*lig	*	*	*	*	*
1r	.	2r	.	.	1d	-bo	.	.	1a	.
.	.	2.d\	ſtra-	.	.	.	2f#X\	-bo	.	.
=75-	=75-	=75-	=75-	=75-	=75-	=75-	=75-	=75-	=75-	=75-
*	*	*	*	*	*	*Xij	*	*ij	*	*
2r	.	.	.	0ryy	1G	.	2.g\	ſtra-	2.b-/	.
.	.	4d\	-tum	.	.	.	.	.	.	.
2.G\	ſtra-	2G/	me-	.	.	.	.	.	.	.
.	.	.	.	.	.	.	4g\	-tũ(m)	4cc\	.
*	*	*	*	*	*Xlig	*	*	*	*	*
.	.	2B-/	-um	.	2r	.	2d/	me-	1dd	-bo
4G\	-rum	.	.	.	.	.	.	.	.	.
2D/	me-	2A/	ri-	.	2.d\	ſtra-	2fny\	-ũ(m)	.	.
*	*	*	*	*	*	*	*	*	*	*Xij
=76-	=76-	=76-	=76-	=76-	=76-	=76-	=76-	=76-	=76-	=76-
2E-X/	-um	2.G/	-ga-	0ryy	.	.	2g\	ri-	1r	.
.	.	.	.	.	4d\	-rum	.	.	.	.
2E-/	ri-	.	.	.	2cny/	me-	1g	-ga-	.	.
.	.	4A/	.	.	.	.	.	.	.	.
0.D	-ga-	2B-/	.	.	2d\	-um	.	.	2r	.
.	.	2A/	-bo	.	2d\	ri-	4f\	.	2.dd\	ſtra-
.	.	.	.	.	.	.	4e/	.	.	.
=77-	=77-	=77-	=77-	=77-	=77-	=77-	=77-	=77-	=77-	=77-
.	.	2r	.	0ryy	1A	-ga-	1f	.	.	.
.	.	.	.	.	.	.	.	.	4dd\	-tũ(m)
*	*	*	*ij	*	*	*	*	*	*	*
.	.	2.d\	ſtra-	.	.	.	.	.	2a/	me-
.	.	.	.	.	1F	-bo	2d/	-bo	2b-/	-ũ(m)
.	.	4d\	-rum	.	.	.	.	.	.	.
*	*	*	*	*	*	*	*	*Xij	*	*
.	.	2A/	me-	.	.	.	2d/	ſtra-	1a/	ri-
=78-	=78-	=78-	=78-	=78-	=78-	=78-	=78-	=78-	=78-	=78-
0D	-bo	2B-/	-um	0ryy	2r	.	2f\	-rum	.	.
.	.	2B-/	ri-	.	2.d\	ſtra-	2g\	me-	1g	-ga-
.	.	1A	-ga-	.	.	.	2a\	-ũ(m)	.	.
.	.	.	.	.	4d\	-rum	.	.	.	.
.	.	.	.	.	2A/	me-	2d/	ri-	2f#X/	.
=79-	=79-	=79-	=79-	=79-	=79-	=79-	=79-	=79-	=79-	=79-
!	!	!LO:TX:b:i:t=Mott. Anibal Stabilis A 6. E	!	!	!LO:N:acc=#	!	!	!	!	!
*	*	*	*	*	*	*	*lig	*	*	*
!	!	!	!	!	!	!	!	!	!LO:TX:b:i:t=Mott. Anibal Stabilis A 6. B	!
2r	.	00G	-bo	0ryy	2Bn/	-um	1d	-ga-	00g	-bo.
2G\	ri-	.	.	.	2B/	ri-	.	.	.	.
1C	-ga-	.	.	.	1c	-ga-	1e-X	.	.	.
*	*	*	*Xij	*	*	*	*Xlig	*	*	*
=80-	=80-	=80-	=80-	=80-	=80-	=80-	=80-	=80-	=80-	=80-
!	!	!	!	!	!LO:TX:b:i:t=Mott. Anibal Stabilis A 6. O	!	!	!	!	!
!LO:TX:b:i:t=Mott. Anibal Stabilis A 6. L	!	!	!	!	!LO:N:acc=#	!	!LO:TX:b:i:t=Mott. Anibal Stabilis A 6. H	!	!	!
!LO:N:vis=00	!	!	!	!	!LO:N:vis=00	!	!LO:N:vis=00	!	!	!
0G	-bo.	.	.	0ryy	0Bn	-bo.	0d	-bo.	.	.
==	==	==	==	==	==	==	==	==	==	==
*-	*-	*-	*-	*-	*-	*-	*-	*-	*-	*-
!!!system-decoration: [(s1,s2,s3,s4,s5,s6)]
!!!ENC: Mateusz Solarz
!!!END: 2022-07-13
!!!ENC: Jan Barakat
!!!END: 2022-08-09
